X:1
T:Palo Negro
T:Palo Negro
%%score { 1 | 2 }
L:1/8
M:3/4
K:C
V:1 treble nm="Piano" snm="Pno."
V:2 bass 
V:1
"^C" c"^E"e"^B" B"^D"d"^A" A"^C"c |"^G" G"^B"B z"^A" A"^F" F2 |"^D" D"^E"E"^F" F"^F"F"^E" E"^F"F | %3
"^G" G"^A"A z"^G" G"^E" E2 |"^C" c"^E"e"^B" B"^D"d"^A" A"^C"c |"^G" G"^B"B z"^A" A"^F" F2 | %6
"^D" D"^E"E"^F" F"^F"F"^E" E"^F"F |"^G" G2"^C,E" [Ec]2 z2 |]"^E" e"^A"a"^G" g"^E"e"^A" a"^G"g | %9
"^E" e"^G"g"^F" f"^D"d"^B" B2 |"^D" d"^G"g"^F" f"^D"d"^G" g"^F"f |"^D" d"^F"f"^E" e"^C"c"^G" G2 | %12
"^C" c"^E"e"^D" d"^B"B"^D" d"^C"c |"^A" A"^C"c"^B" B"^G"G"^B" B"^A"A | %14
"^F" F"^A"A"^G" G"^E"E"^G" G"^F"F |"^D" D2"^C" C2 z2 :|[K:Eb] z z"^E♭,G" [Ge]3"^D,F" [Fd] | %17
"^C,E♭" [Ec]2"^B♭,F,D" [DFB]4 | z z2"^A♭" A"^G" G"^B♭"B |"^A♭" A2"^G,E♭" [EG]4 | z2"^C" c3"^B" =B | %21
"^G" G2"^F,D" [DF]4 | z2"^A♭,F" [FA]3"^G,E♭" [EG] |"^F,D" [DF]2"^E♭,C" [CE]4 | %24
 z2"^E♭,G" [Ge]3"^D,F" [Fd] |"^C,E♭" [Ec]2"^B♭,F,D" [DFB]4 | z z2"^A♭" A"^G" G"^B♭"B | %27
"^A♭,F" [FA]2"^G,E♭" [EG]4 | z z"^C,E♭" [Ec]3"^B,G" [G=B] |"^G,E♭" [EG]2"^B♭,F,D" [DFB]4 | %30
 z2"^A♭,F" [FA]3"^G,E♭" [EG] |"^F,D" [DF]2"^E♭,C" [CE]4 | z2"^E♭,C,G" [Gce]4 | %33
 z2"^G,E♭,C,G" [Gceg]4 | z2"^B♭,G" [gb]"^B♭,G" [gb]2"^A♭,F" [fa] |"^G,E♭" [eg]2"^F,D" [df]4 | %36
 z2"^D,B" [=Bd]4 | z2"^F,D" [df]4 | z2"^A♭,F" [fa]"^A♭,F" [fa]2"^G,E♭" [eg] | %39
"^F,D" [df]2"^E♭,C" [ce]4 | z2"^E,D,B♭,G" [GBd=e]4 | z2"^G,E,B♭" [B=eg]4 | %42
 z2"^B♭,G,E" [=egb]"^B♭,G,E" [egb]2"^A♭,E,C" [cea] |"^G,E,C" [c=eg]2"^A♭,F,C" [cfa]4 | %44
 z2"^A♭,F,C" [cfa]"^A♭,F,C" [cfa]2"^G,C" [cg] |"^F,C" [cf]2"^E,C,G" [Gc=e]4 | %46
 z2"^G" G"^B♯"^B"^D" d"^G"g |"^F,C" [cf]2"^E♭,C,G" [Gce]4 |[K:C] z2 z2"^E,C,G" [Gce]2 | %49
"^E,C,G" [Gce]4 z2 | z2 z2"^F,D,B,G" [GBdf]2 |"^F,D,B,G" [GBdf]4 z2 | z2 z2"^G,D,B,G" [GBdg]2 | %53
"^G,D,B,G" [GBdg]4 z2 | z2 z2"^E,C,G" [Gce]2 |"^E,C,G" [Gce]4 z2 | z2 z2"^E,C,G" [Gce]2 | %57
"^E,C,G" [Gce]4 z2 | z2 z2"^F,D,B,G" [GBdf]2 |"^F,D,B,G" [GBdf]4 z2 | z2 z2"^G,D,B,G" [GBdg]2 | %61
"^G,D,B,G" [GBdg]4 z2 | z6 |"^C" c"^E"e"^B" B"^D"d"^A" A"^C"c |"^G" G"^B"B z"^A" A"^F" F2 | %65
"^D" D"^E"E"^F" F"^F"F"^E" E"^F"F |"^G" G"^A"A z"^G" G"^E" E2 |"^C" c"^E"e"^B" B"^D"d"^A" A"^C"c | %68
"^G" G"^B"B z"^A" A"^F" F2 |"^D" D"^E"E"^F" F"^F"F"^E" E"^F"F |"^G" G2"^C,E" [Ec]2 z2 |] %71
V:2
"^C,C" [C,C]2"^B,B" [B,,B,]2"^A,A" [A,,A,]2 |"^G,G" [G,,G,]2 z"^D" D,"^B" B,,2 | %2
"^G,G" [G,,G,]2"^A,A" [A,,A,]2"^B,B" [B,,B,]2 |"^C,C" [C,C]2 z"^G" G,"^E" E,2 | %4
"^C,C" [C,C]2"^B,B" [B,,B,]2"^A,A" [A,,A,]2 |"^G,G" [G,,G,]2 z"^D" D,"^B" B,,2 | %6
"^G,G" [G,,G,]2"^A,A" [A,,A,]2"^B,B" [B,,B,]2 |"^C,C" [C,C]2"^C,C" [C,C]2 z2 |] %8
"^C,C" [C,C]2 z"^G" G,"^E" E,2 |"^C,C" [C,C]2 z"^G" G,"^D" D,2 |"^G" G,,2 z"^G" G,"^D" D,2 | %11
"^C,C" [C,C]2 z"^G" G,"^E" E,2 |"^C,C" [C,C]3"^B,B" [B,,B,]3 |"^A" A,,3"^G" G,,3 | %14
"^F" F,,3"^E" E,,3 |"^D" D,,2"^C" C,,2 z2 :|[K:Eb]"^C" C,,2 z"^C,G" [G,C]"^E♭" E,"^C,G"[G,C] | %17
"^C" C,"^C"C z"^B♭,F" [F,B,]"^D" D,"^B♭,F"[F,B,] |"^B♭" B,,2"^B♭" B,2"^F" F,2 | %19
"^B♭" B,,2 z"^B♭,G" [G,B,]"^E♭" E,"^B♭,G"[G,B,] |"^B♭" B,,2"^E♭" E,3"^G" G, | %21
"^E♭" E,2"^G" G,2"^D" D,2 |"^G" G,,2 z"^G,D" [D,G,]"^B" =B,,"^G"G, | %23
"^G" G,,2 z"^G,E♭" [E,G,]"^C" C,"^G,E♭"[E,G,] |"^G" G,,"^G"G, z"^G,E♭" [E,G,]"^C" C,"^G,E♭"[E,G,] | %25
"^G" G,,2"^B♭" B,2"^F" F,2 |"^B♭" B,,2 z"^B♭,F" [F,B,]"^D" D,"^B♭,F"[F,B,] | %27
"^B♭" B,,2"^E♭" E,2"^B♭" B,,2 |"^E♭" E,,2 z"^E♭,B♭" [B,,E,]"^G" G,,"^E♭,B♭"[B,,E,] | %29
"^E♭" E,,2 z"^G,D" [D,G,]"^B" =B,,"^G,D"[D,G,] | %30
"^G" G,,"^G"G, z"^G,D" [D,G,]"^B" =B,,"^G,D"[D,G,] |"^B♭" B,,2"^B♭" B,2"^F" F,2 | %32
"^C" C,,2 z"^C,G" [G,C]"^E♭" E,"^C,G"[G,C] |"^C" C,"^C,G"[G,C] z"^C,G" [G,C]"^C" C,"^C,G"[G,C] | %34
"^C" C,"^C,G"[G,C] z"^C,G" [G,C]"^C" C,"^C,G"[G,C] | %35
"^C" C,"^C"C z"^G,D" [D,G,]"^B" =B,,"^G,D"[D,G,] | %36
"^G" G,,"^G"G, z"^G,D" [D,G,]"^B" =B,,"^G,D"[D,G,] | %37
"^G" G,,"^G"G, z"^G,D" [D,G,]"^B" =B,,"^G,D"[D,G,] | %38
"^G" G,,"^G"G, z"^G,D" [D,G,]"^B" =B,,"^G,D"[D,G,] | %39
"^G" G,,"^G"G, z"^G,E♭" [E,G,]"^C" C,"^G,E♭"[E,G,] | %40
"^G" G,,"^G"G, z"^G,E" [=E,G,]"^C" C,"^G,E"[E,G,] | %41
"^G" G,,"^G"G, z"^G,E" [=E,G,]"^C" C,"^G,E"[E,G,] | %42
"^G" G,,"^G"G, z"^G,E" [=E,G,]"^C" C,"^G,E"[E,G,] | %43
"^G" G,,"^G"G, z"^F,C" [C,F,]"^A♭" A,,"^F,C"[C,F,] | %44
"^F" F,,"^F"F, z"^F,C" [C,F,]"^A♭" A,,"^F,C"[C,F,] | %45
"^F" F,,"^F"F, z"^G,E♭" [E,G,]"^C" C,"^G,E♭"[E,G,] | %46
"^G" G,,"^G"G, z"^G,D" [D,G,]"^B" =B,,"^G,D"[D,G,] |"^G" G,,2"^G,E♭,C" [C,E,G,]4 | %48
[K:C]"^G" G,,2"^C" C,2 z2 | z2 z"^G" G,,2"^C" C, |"^G" G,,2"^D" D,2 z2 | z2 z"^D" D,"^E" E,"^F"F, | %52
"^E" E,"^D"D,"^G" G,,4 | z2 z"^G" G,,2"^A" A,, |"^B" B,,2"^C" C,4 | z2 z"^B" B,,2"^A" A,, | %56
"^G" G,,2"^C" C,2 z2 | z2 z"^G" G,,2"^C" C, |"^G" G,,2"^D" D,2 z2 | z2 z"^D" D,"^E" E,"^F"F, | %60
"^E" E,"^D"D,"^G" G,,4 | z2 z"^G" G,,2"^A" A,, |"^B" B,,2"^C" C,4 | %63
"^C,C" [C,C]2"^B,B" [B,,B,]2"^A,A" [A,,A,]2 |"^G,G" [G,,G,]2 z"^D" D,"^B" B,,2 | %65
"^G,G" [G,,G,]2"^A,A" [A,,A,]2"^B,B" [B,,B,]2 |"^C,C" [C,C]2 z"^G" G,"^E" E,2 | %67
"^C,C" [C,C]2"^B,B" [B,,B,]2"^A,A" [A,,A,]2 |"^G,G" [G,,G,]2 z"^D" D,"^B" B,,2 | %69
"^G,G" [G,,G,]2"^A,A" [A,,A,]2"^B,B" [B,,B,]2 |"^C,C" [C,C]2"^C,C" [C,C]2 z2 |] %71

